**kern	**kern	**kern	**kern
*staff4	*staff3	*staff2	*staff1
*clefF4	*clefF4	*clefG2	*clefG2
*k[f#]	*k[f#]	*k[f#]	*k[f#]
*M2/4	*M2/4	*M2/4	*M2/4
*G:	*G:	*G:	*G:
=-	=-	=-	=-
8r	8r	8r	32eeLL
.	.	.	32ff#
.	.	.	32gg
.	.	.	32aaJJJ
*	*clefG2	*	*
=118	=118	=118	=118
*	*	*^	*
(4E	(4e	2b	(4g	32aa#LLL
.	.	.	.	32bb
.	.	.	.	32ccc
.	.	.	.	32bbJJ
.	.	.	.	32aaLL
.	.	.	.	32gg
.	.	.	.	32ff#
.	.	.	.	32eeJJJ
4BB)	8d#L	.	8f#L	32bbLLL
.	.	.	.	32aa
.	.	.	.	32gg#
.	.	.	.	32aaJJ
.	8f#J)	.	8aJ)	32ggLL
.	.	.	.	32ff#
.	.	.	.	32ee
.	.	.	.	32dd#JJJ
=119	=119	=119	=119	=119
(4C	(8eL	2g	8gL	32ff#LLL
.	.	.	.	32gg
.	.	.	.	32aa
.	.	.	.	32ggJJ
.	8cJ	.	8eJ	32ffLL
.	.	.	.	32ee
.	.	.	.	32dd
.	.	.	.	32ccJJJ
4GG)	8BL	.	8dL	32ggLLL
.	.	.	.	32ff
.	.	.	.	32ee
.	.	.	.	32ffJJ
.	8dJ)	.	8fJ	32eeLL
.	.	.	.	32dd
.	.	.	.	32cc
.	.	.	.	32bJJJ
=120	=120	=120	=120	=120
4C	4c	4g	4e	32dd#LLL
.	.	.	.	32ee
.	.	.	.	32dd
.	.	.	.	32ccJJ
.	.	.	.	32bLL
.	.	.	.	32a
.	.	.	.	32b
.	.	.	.	32ccJJJ
8r	8r	8r	4r	32ddLLL
.	.	.	.	32ee
.	.	.	.	32ff#
.	.	.	.	32gg#JJ
8C	8e	8a 8cc	.	32aaLL
.	.	.	.	32bb
.	.	.	.	32ccc
.	.	.	.	32aaJJJ
*	*	*v	*v	*
=121	=121	=121	=121
4.D	4.d	(4g 4b	32ggLLL
.	.	.	32aa#
.	.	.	32bb
.	.	.	32aa#JJ
.	.	.	32bbLL
.	.	.	32aa#
.	.	.	32bb
.	.	.	32ggJJJ
.	.	8f#) 8a	32ff#LLL
.	.	.	32aa
.	.	.	32gg#
.	.	.	32aaJJ
8r	8r	8r	32ggLL
.	.	.	32ff#
.	.	.	32ee
.	.	.	32ddJJJ
=122	=122	=122	=122
2DD 2D	(16GLL	2r	32dd#LLL
.	.	.	32ee
.	16A	.	32ff#
.	.	.	32eeJJ
.	16B	.	32ggLL
.	.	.	32ee
.	16cJJ	.	32aa
.	.	.	32eeJJJ
.	16dLL	.	32bbLLL
.	.	.	32ee
.	16e	.	32ccc
.	.	.	32eeJJ
.	16f#	.	32dddLL
.	.	.	32ee
.	16gJJ	.	32eee
.	.	.	32eeJJJ
=123	=123	=123	=123
2DD 2D	16aLL	4r	32dddLLL
.	.	.	32ccc
.	16g	.	32bb
.	.	.	32cccJJ
.	16f#	.	32aaLL
.	.	.	32ccc
.	16eJJ	.	32gg
.	.	.	32cccJJJ
.	16dLL	8r	32ff#LLL
.	.	.	32ccc
.	16c	.	32ee
.	.	.	32cccJJ
.	16B	8f#	32ddLL
.	.	.	32ccc
.	16AJJ	.	32cc
.	.	.	32cccJJJ
=	=	=	=
*-	*-	*-	*-
